!!!OTL: Lanchanggong
!!!ARE: Asia, China,ÿHebei Zhuolu
!! IV, 49
!!!SCT: C1926
!!!YEM: Copyright 1995, estate of Helmut Schaffrath.
**kern
*ICvox
*Ivox
*M2/4
*k[f#]
*G:
{16aa
16aa
16aa
16bb
16aa
16gg
8ee
=1
4gg
8gg
8ee
=2
16aa
16aa
16aa
16bb
16aa
16gg
8ee
=3
4gg
4ee}
=4
{8aa
16aa
16bb
4ddd
=5
16ddd
16bb
16bb
16aa
8ddd
16gg
16gg
=6
16ee
16gg
16ee
16dd
16ee
16dd
8b
=7
2dd}
==
!!!AGN: Xiaodiao
!!!AMT: simple duple
!!!AIN: vox
!!!EED: Helmut Schaffrath
!!!EEV: 1.0
*-
